Numix/16/status/indicator-keyboard-Ta-2.svg

<?xml version="1.0" encoding="UTF-8" standalone="no"?>
<svg
   xmlns:dc="http://purl.org/dc/elements/1.1/"
   xmlns:cc="http://creativecommons.org/ns#"
   xmlns:rdf="http://www.w3.org/1999/02/22-rdf-syntax-ns#"
   xmlns:svg="http://www.w3.org/2000/svg"
   xmlns="http://www.w3.org/2000/svg"
   xmlns:sodipodi="http://sodipodi.sourceforge.net/DTD/sodipodi-0.dtd"
   xmlns:inkscape="http://www.inkscape.org/namespaces/inkscape"
   viewBox="0 0 16 16"
   id="svg2"
   version="1.1"
   inkscape:version="0.91 r13725"
   sodipodi:docname="indicator-keyboard-Ta-2.svg">
  <metadata
     id="metadata14">
    <rdf:RDF>
      <cc:Work
         rdf:about="">
        <dc:format>image/svg+xml</dc:format>
        <dc:type
           rdf:resource="http://purl.org/dc/dcmitype/StillImage" />
      </cc:Work>
    </rdf:RDF>
  </metadata>
  <defs
     id="defs12" />
  <sodipodi:namedview
     pagecolor="#ffffff"
     bordercolor="#666666"
     borderopacity="1"
     objecttolerance="10"
     gridtolerance="10"
     guidetolerance="10"
     inkscape:pageopacity="0"
     inkscape:pageshadow="2"
     inkscape:window-width="640"
     inkscape:window-height="480"
     id="namedview10"
     showgrid="false"
     inkscape:zoom="14.75"
     inkscape:cx="8"
     inkscape:cy="8"
     inkscape:window-x="65"
     inkscape:window-y="24"
     inkscape:window-maximized="0"
     inkscape:current-layer="svg2" />
  <path
     style="fill:#ececec;fill-opacity:1"
     d="M 1.5996094 0 C 0.71320937 2.9605947e-16 0 0.71320937 0 1.5996094 L 0 14.400391 C 2.9605947e-16 15.286791 0.71320937 16 1.5996094 16 L 14.400391 16 C 15.286791 16 16 15.286791 16 14.400391 L 16 1.5996094 C 16 0.71320937 15.286791 0 14.400391 0 L 1.5996094 0 z M 2.0625 4.859375 L 6.6699219 4.859375 L 6.6699219 5.390625 L 4.671875 5.390625 L 4.671875 11.095703 L 4.0605469 11.095703 L 4.0605469 5.390625 L 2.0625 5.390625 L 2.0625 4.859375 z M 8.7285156 6.3359375 C 9.0345156 6.3359375 9.2919531 6.3807031 9.5019531 6.4707031 C 9.7179531 6.5547031 9.8914376 6.6740781 10.023438 6.8300781 C 10.155437 6.9800781 10.2525 7.1591406 10.3125 7.3691406 C 10.3725 7.5791406 10.402344 7.8086875 10.402344 8.0546875 L 10.402344 10.988281 C 10.342344 11.006281 10.254625 11.026781 10.140625 11.050781 C 10.026625 11.068781 9.8960938 11.089281 9.7460938 11.113281 C 9.5960937 11.137281 9.4281875 11.155969 9.2421875 11.167969 C 9.0621875 11.185969 8.8755937 11.195313 8.6835938 11.195312 C 8.4375938 11.195312 8.21 11.167281 8 11.113281 C 7.796 11.059281 7.6149844 10.975328 7.4589844 10.861328 C 7.3089844 10.741328 7.1896094 10.592109 7.0996094 10.412109 C 7.0156094 10.226109 6.9726563 10.000328 6.9726562 9.7363281 C 6.9726562 9.4843281 7.0211875 9.2698437 7.1171875 9.0898438 C 7.2131875 8.9098438 7.3474844 8.7624375 7.5214844 8.6484375 C 7.6954844 8.5284375 7.9025781 8.4407187 8.1425781 8.3867188 C 8.3825781 8.3327188 8.6437813 8.3066406 8.9257812 8.3066406 C 9.0097812 8.3066406 9.0975 8.3122187 9.1875 8.3242188 C 9.2835 8.3302187 9.3730313 8.341375 9.4570312 8.359375 C 9.5470313 8.371375 9.6216406 8.3862969 9.6816406 8.4042969 C 9.7476406 8.4162969 9.7924063 8.4294063 9.8164062 8.4414062 L 9.8164062 8.1523438 C 9.8164062 7.9903437 9.80525 7.8355469 9.78125 7.6855469 C 9.75725 7.5295469 9.7031406 7.3914844 9.6191406 7.2714844 C 9.5411406 7.1454844 9.4273438 7.0466094 9.2773438 6.9746094 C 9.1333438 6.8966094 8.9411719 6.8574219 8.7011719 6.8574219 C 8.3591719 6.8574219 8.1035469 6.8816875 7.9355469 6.9296875 C 7.7675469 6.9776875 7.6444063 7.016875 7.5664062 7.046875 L 7.4863281 6.5332031 C 7.5883281 6.4852031 7.7450781 6.4404375 7.9550781 6.3984375 C 8.1710781 6.3564375 8.4285156 6.3359375 8.7285156 6.3359375 z M 12.609375 8.7539062 C 13.003275 8.7539062 13.299147 8.851875 13.498047 9.046875 C 13.696946 9.237975 13.796875 9.5044563 13.796875 9.8476562 C 13.796875 9.9997563 13.769444 10.14475 13.714844 10.28125 C 13.660244 10.41385 13.585787 10.543169 13.492188 10.667969 C 13.402488 10.792769 13.298641 10.912297 13.181641 11.029297 C 13.064641 11.146297 12.947072 11.263859 12.826172 11.380859 C 12.724772 11.478359 12.624844 11.578288 12.527344 11.679688 C 12.433744 11.777188 12.347531 11.877116 12.269531 11.978516 C 12.195431 12.076016 12.134691 12.172031 12.087891 12.269531 C 12.044991 12.363131 12.023438 12.457181 12.023438 12.550781 L 12.023438 12.5625 L 13.9375 12.5625 L 13.9375 12.896484 L 11.603516 12.896484 C 11.603516 12.888684 11.60159 12.874969 11.597656 12.855469 L 11.597656 12.755859 C 11.597656 12.572559 11.630966 12.402094 11.697266 12.246094 C 11.763566 12.086194 11.845866 11.937275 11.947266 11.796875 C 12.052566 11.656475 12.168169 11.525197 12.292969 11.404297 C 12.421669 11.283397 12.545109 11.165834 12.662109 11.052734 C 12.759609 10.959134 12.8517 10.869003 12.9375 10.783203 C 13.0272 10.693503 13.103622 10.603366 13.169922 10.509766 C 13.236222 10.416166 13.289125 10.316238 13.328125 10.210938 C 13.367125 10.105638 13.386719 9.9900344 13.386719 9.8652344 C 13.386719 9.5922344 13.312262 9.39825 13.164062 9.28125 C 13.019763 9.16035 12.837534 9.0996094 12.615234 9.0996094 C 12.490434 9.0996094 12.37875 9.1152844 12.28125 9.1464844 C 12.18375 9.1776844 12.097537 9.2149125 12.023438 9.2578125 C 11.953237 9.2968125 11.89445 9.3379594 11.84375 9.3808594 C 11.79305 9.4237594 11.755822 9.4570688 11.732422 9.4804688 L 11.533203 9.2167969 C 11.556603 9.1894969 11.59775 9.1503094 11.65625 9.0996094 C 11.71865 9.0450094 11.795066 8.9921062 11.884766 8.9414062 C 11.978366 8.8907063 12.084178 8.8476 12.205078 8.8125 C 12.325978 8.7735 12.461175 8.7539063 12.609375 8.7539062 z M 8.9082031 8.8105469 C 8.7642031 8.8105469 8.6149844 8.8217031 8.4589844 8.8457031 C 8.3029844 8.8637031 8.1573906 8.9084687 8.0253906 8.9804688 C 7.8933906 9.0464688 7.787125 9.1397656 7.703125 9.2597656 C 7.619125 9.3797656 7.5761719 9.5383281 7.5761719 9.7363281 C 7.5761719 9.9103281 7.6042031 10.057734 7.6582031 10.177734 C 7.7182031 10.297734 7.7983906 10.394797 7.9003906 10.466797 C 8.0083906 10.538797 8.1352969 10.592906 8.2792969 10.628906 C 8.4292969 10.658906 8.5972031 10.673828 8.7832031 10.673828 C 9.0112031 10.673828 9.2089531 10.666297 9.3769531 10.654297 C 9.5509531 10.636297 9.6964063 10.615797 9.8164062 10.591797 L 9.8164062 8.953125 C 9.7504063 8.923125 9.6459531 8.8932812 9.5019531 8.8632812 C 9.3579531 8.8272812 9.1602031 8.8105469 8.9082031 8.8105469 z "
     id="path4" />
</svg>

<svg xmlns="http://www.w3.org/2000/svg" viewBox="0 0 16 16">
 <path d="m 1.6 0 c -0.886 0 -1.6 0.713 -1.6 1.6 l 0 12.801 c 0 0.886 0.713 1.6 1.6 1.6 l 12.801 0 c 0.886 0 1.6 -0.713 1.6 -1.6 l 0 -12.801 c 0 -0.886 -0.713 -1.6 -1.6 -1.6 l -12.801 0 z m 0.463 4.859 l 4.607 0 l 0 0.531 l -1.998 0 l 0 5.705 l -0.611 0 l 0 -5.705 l -1.998 0 l 0 -0.531 z m 6.666 1.477 c 0.306 0 0.563 0.045 0.773 0.135 c 0.216 0.084 0.389 0.203 0.521 0.359 c 0.132 0.15 0.229 0.329 0.289 0.539 c 0.06 0.21 0.09 0.44 0.09 0.686 l 0 2.934 c -0.06 0.018 -0.148 0.038 -0.262 0.063 c -0.114 0.018 -0.245 0.038 -0.395 0.063 c -0.15 0.024 -0.318 0.043 -0.504 0.055 c -0.18 0.018 -0.367 0.027 -0.559 0.027 c -0.246 0 -0.474 -0.028 -0.684 -0.082 c -0.204 -0.054 -0.385 -0.138 -0.541 -0.252 c -0.15 -0.12 -0.269 -0.269 -0.359 -0.449 c -0.084 -0.186 -0.127 -0.412 -0.127 -0.676 c 0 -0.252 0.049 -0.466 0.145 -0.646 c 0.096 -0.18 0.23 -0.327 0.404 -0.441 c 0.174 -0.12 0.381 -0.208 0.621 -0.262 c 0.24 -0.054 0.501 -0.08 0.783 -0.08 c 0.084 0 0.172 0.006 0.262 0.018 c 0.096 0.006 0.186 0.017 0.27 0.035 c 0.09 0.012 0.165 0.027 0.225 0.045 c 0.066 0.012 0.111 0.025 0.135 0.037 l 0 -0.289 c 0 -0.162 -0.011 -0.317 -0.035 -0.467 c -0.024 -0.156 -0.078 -0.294 -0.162 -0.414 c -0.078 -0.126 -0.192 -0.225 -0.342 -0.297 c -0.144 -0.078 -0.336 -0.117 -0.576 -0.117 c -0.342 0 -0.598 0.024 -0.766 0.072 c -0.168 0.048 -0.291 0.087 -0.369 0.117 l -0.08 -0.514 c 0.102 -0.048 0.259 -0.093 0.469 -0.135 c 0.216 -0.042 0.473 -0.063 0.773 -0.063 z m 3.881 2.418 c 0.394 0 0.69 0.098 0.889 0.293 c 0.199 0.191 0.299 0.458 0.299 0.801 c 0 0.152 -0.027 0.297 -0.082 0.434 c -0.055 0.133 -0.129 0.262 -0.223 0.387 c -0.09 0.125 -0.194 0.244 -0.311 0.361 c -0.117 0.117 -0.235 0.235 -0.355 0.352 c -0.101 0.098 -0.201 0.197 -0.299 0.299 c -0.094 0.098 -0.18 0.197 -0.258 0.299 c -0.074 0.097 -0.135 0.194 -0.182 0.291 c -0.043 0.094 -0.064 0.188 -0.064 0.281 l 0 0.012 l 1.914 0 l 0 0.334 l -2.334 0 c 0 -0.008 -0.002 -0.022 -0.006 -0.041 l 0 -0.1 c 0 -0.183 0.033 -0.354 0.1 -0.51 c 0.066 -0.16 0.149 -0.309 0.25 -0.449 c 0.105 -0.14 0.221 -0.272 0.346 -0.393 c 0.129 -0.121 0.252 -0.238 0.369 -0.352 c 0.098 -0.094 0.19 -0.184 0.275 -0.27 c 0.09 -0.09 0.166 -0.18 0.232 -0.273 c 0.066 -0.094 0.119 -0.194 0.158 -0.299 c 0.039 -0.105 0.059 -0.221 0.059 -0.346 c 0 -0.273 -0.074 -0.467 -0.223 -0.584 c -0.144 -0.121 -0.327 -0.182 -0.549 -0.182 c -0.125 0 -0.236 0.016 -0.334 0.047 c -0.098 0.031 -0.184 0.068 -0.258 0.111 c -0.07 0.039 -0.129 0.08 -0.18 0.123 c -0.051 0.043 -0.088 0.076 -0.111 0.1 l -0.199 -0.264 c 0.023 -0.027 0.065 -0.066 0.123 -0.117 c 0.062 -0.055 0.139 -0.108 0.229 -0.158 c 0.094 -0.051 0.199 -0.094 0.32 -0.129 c 0.121 -0.039 0.256 -0.059 0.404 -0.059 z m -3.701 0.057 c -0.144 0 -0.293 0.011 -0.449 0.035 c -0.156 0.018 -0.302 0.063 -0.434 0.135 c -0.132 0.066 -0.238 0.159 -0.322 0.279 c -0.084 0.12 -0.127 0.279 -0.127 0.477 c 0 0.174 0.028 0.321 0.082 0.441 c 0.06 0.12 0.14 0.217 0.242 0.289 c 0.108 0.072 0.235 0.126 0.379 0.162 c 0.15 0.03 0.318 0.045 0.504 0.045 c 0.228 0 0.426 -0.008 0.594 -0.02 c 0.174 -0.018 0.319 -0.038 0.439 -0.063 l 0 -1.639 c -0.066 -0.03 -0.17 -0.06 -0.314 -0.09 c -0.144 -0.036 -0.342 -0.053 -0.594 -0.053 z" style="fill:#ececec;fill-opacity:1"/>
</svg>
